X:1
T:Title
%%score { ( 1 3 ) | ( 2 4 ) }
L:1/8
Q:1/4=94
M:4/4
K:Ab
V:1 treble nm="Grand Piano"
V:3 treble 
V:2 bass 
V:4 bass 
V:1
 [CE][Ec][Ec][CA] [CA][CE][CE][EA] | [EG]F F>=E F4 | EGGB [DB][CA][CA][Ec] | %3
w: L.~E.~Jones * * * * * * *|||
 [=Dc][DB] [DF]>[Dc] [EB]4 | [CE][Ec][Ec][CA] [CA][CE][CE][EA] | [EG]F F>F [Fd]4 | c2 E2 ABcA | %7
w: ||||
[M:7/8] B- B3 [A,CA]3 |[M:1/8] E |[M:4/4] A4 A4 | B=ABc [CA]3 E | B4 B4 | %12
w: |||||
[M:3/4] [=DB][DA] [EG][DF] E2 |[M:1/4] C[B,D] |[M:4/4] [CE][CA][Ec][DB] [CA]2 [CE]2 | %15
w: |||
 [DF][FA][EG][DF] [CE]2 [EA]2 | G2 B2 d3 G | B4 [CA]2 z2 |] %18
w: |||
V:2
 [A,,A,][A,,A,][A,,A,][A,,A,] [A,,A,][A,,A,][A,,A,][C,A,] | %1
 [D,A,][D,A,D] [D,A,D]>[D,A,D] [D,A,D]4 | %2
 [D,G,D][E,B,E][E,B,E][E,G,D] [A,,A,][A,,A,][A,,A,][A,,A,] | %3
 [B,,A,][B,,A,] [B,,A,]>[B,,A,] [E,G,]4 | %4
 [A,,A,][A,,A,][A,,A,][A,,A,] [A,,A,][A,,A,][A,,A,][C,A,] | [D,A,][D,A,D] [D,A,D]>[D,A,D] [D,A,]4 | %6
 [E,A,E]2 [E,A,C]2 [E,A,C][E,A,D][E,A,E][E,A,C] |[M:7/8] [E,G,D]- [E,G,D]3 A,,3 | %8
[M:1/8][K:treble] C |[M:4/4] C3 E C3 [A,C] | [E,G,D][E,_G,C][E,=G,D][E,G,E] [A,,A,]3 C | D4 D4 | %12
[M:3/4] [B,,B,][B,,F,] [B,,B,][B,,A,] [E,G,]2 |[M:1/4] [A,,A,][A,,A,] | %14
[M:4/4] [A,,A,][A,,A,][A,,A,][A,,A,] [A,,A,]2 [A,,A,]2 | %15
 [D,A,][D,A,][D,A,][D,A,] [A,,A,]2 [C,A,]2 | [E,B,E]2 [E,G,E]2 [E,G,E]3 [E,B,D] | %17
 [E,G,D]4 [A,,A,]2 z2 |] %18
V:3
 x8 | x8 | x8 | x8 | x8 | x8 | x8 |[M:7/8] x7 |[M:1/8] x |[M:4/4] z A,A,c z A,A,E | x8 | %11
 z G,G,c z G,G,G |[M:3/4] x6 |[M:1/4] x2 |[M:4/4] x8 | x8 | x8 | x8 |] %18
V:4
 x8 | x8 | x8 | x8 | x8 | x8 | x8 |[M:7/8] x7 |[M:1/8][K:treble] x |[M:4/4] x8 | x8 | %11
 z E,E,E z E,E,[E,B,E] |[M:3/4] x6 |[M:1/4] x2 |[M:4/4] x8 | x8 | x8 | x8 |] %18

